svgs/sharp-solid/truck-monster.svg

<svg xmlns="http://www.w3.org/2000/svg" viewBox="0 0 640 512"><!--! Font Awesome Pro 6.6.0 by @fontawesome - https://fontawesome.com License - https://fontawesome.com/license (Commercial License) Copyright 2024 Fonticons, Inc. --><path d="M224 0l32 0L384 0l16 0 9.6 12.8L496 128l112 0 0 96 32 0 0 64-32 0c-29.2-38.9-75.7-64-128-64s-98.8 25.1-128 64l-64 0c-29.2-38.9-75.7-64-128-64s-98.8 25.1-128 64L0 288l0-64 32 0 0-96 192 0 0-96 0-32zM368 64l-80 0 0 64 128 0L368 64zM128 256l64 0 0 20.6c7.4 2.2 14.6 5.2 21.3 8.8l14.6-14.6 45.3 45.3-14.6 14.6c3.6 6.7 6.6 13.8 8.8 21.3l20.6 0 0 64-20.6 0c-2.2 7.4-5.2 14.6-8.8 21.3l14.6 14.6-45.3 45.3-14.6-14.6c-6.7 3.6-13.8 6.6-21.3 8.8l0 20.6-64 0 0-20.6c-7.4-2.2-14.6-5.2-21.3-8.8L92.1 497.1 46.9 451.9l14.6-14.6c-3.6-6.7-6.6-13.8-8.8-21.3L32 416l0-64 20.6 0c2.2-7.4 5.2-14.6 8.8-21.3L46.9 316.1l45.3-45.3 14.6 14.6c6.7-3.6 13.8-6.6 21.3-8.8l0-20.6zm32 176a48 48 0 1 0 0-96 48 48 0 1 0 0 96zM448 276.6l0-20.6 64 0 0 20.6c7.4 2.2 14.6 5.2 21.3 8.8l14.6-14.6 45.3 45.3-14.6 14.6c3.6 6.7 6.6 13.8 8.8 21.3l20.6 0 0 64-20.6 0c-2.2 7.4-5.2 14.6-8.8 21.3l14.6 14.6-45.3 45.3-14.6-14.6c-6.7 3.6-13.8 6.6-21.3 8.8l0 20.6-64 0 0-20.6c-7.4-2.2-14.6-5.2-21.3-8.8l-14.6 14.6-45.3-45.3 14.6-14.6c-3.6-6.7-6.6-13.8-8.8-21.3L352 416l0-64 20.6 0c2.2-7.4 5.2-14.6 8.8-21.3l-14.6-14.6 45.3-45.3 14.6 14.6c6.7-3.6 13.8-6.6 21.3-8.8zM528 384a48 48 0 1 0 -96 0 48 48 0 1 0 96 0z"/></svg>

<svg xmlns="http://www.w3.org/2000/svg" viewBox="0 0 640 512"><!--! Font Awesome Pro 6.4.0 by @fontawesome - https://fontawesome.com License - https://fontawesome.com/license (Commercial License) Copyright 2023 Fonticons, Inc. --><path d="M224 0h32H384h16l9.6 12.8L496 128H608v96h32v64H608c-29.2-38.9-75.7-64-128-64s-98.8 25.1-128 64H288c-29.2-38.9-75.7-64-128-64s-98.8 25.1-128 64H0V224H32V128H224V32 0zM368 64H288v64H416L368 64zM128 256h64v20.6c7.4 2.2 14.6 5.2 21.3 8.8l14.6-14.6 45.3 45.3-14.6 14.6c3.6 6.7 6.6 13.8 8.8 21.3H288v64H267.4c-2.2 7.4-5.2 14.6-8.8 21.3l14.6 14.6-45.3 45.3-14.6-14.6c-6.7 3.6-13.8 6.6-21.3 8.8V512H128V491.4c-7.4-2.2-14.6-5.2-21.3-8.8L92.1 497.1 46.9 451.9l14.6-14.6c-3.6-6.7-6.6-13.8-8.8-21.3H32V352H52.6c2.2-7.4 5.2-14.6 8.8-21.3L46.9 316.1l45.3-45.3 14.6 14.6c6.7-3.6 13.8-6.6 21.3-8.8V256zm32 176a48 48 0 1 0 0-96 48 48 0 1 0 0 96zM448 276.6V256h64v20.6c7.4 2.2 14.6 5.2 21.3 8.8l14.6-14.6 45.3 45.3-14.6 14.6c3.6 6.7 6.6 13.8 8.8 21.3H608v64H587.4c-2.2 7.4-5.2 14.6-8.8 21.3l14.6 14.6-45.3 45.3-14.6-14.6c-6.7 3.6-13.8 6.6-21.3 8.8V512H448V491.4c-7.4-2.2-14.6-5.2-21.3-8.8l-14.6 14.6-45.3-45.3 14.6-14.6c-3.6-6.7-6.6-13.8-8.8-21.3H352V352h20.6c2.2-7.4 5.2-14.6 8.8-21.3l-14.6-14.6 45.3-45.3 14.6 14.6c6.7-3.6 13.8-6.6 21.3-8.8zM528 384a48 48 0 1 0 -96 0 48 48 0 1 0 96 0z"/></svg>
